X: 1
T: Betsy's Delight
M: 6/8
L: 1/8
R: jig
K: Ddor
D2 E FED|Ade c{dc}AG|FAd fed|{d}cAG ECE|
DA,D FED|dce dcA|GEG cBA|1 GEC D2 A,:|2 GEC D2 c||
Add dcA|cfe dcA|GEG cBA|GEG c{d}cB|
Ade fed|gfe {e}dcA|F A/B/c dcA|1 GEC D2 c:|2 GEC DFE||
